humanity-icon-theme/Humanity/actions/22/go-up.svg

<?xml version="1.0" encoding="UTF-8" standalone="no"?>
<!-- Created with Inkscape (http://www.inkscape.org/) -->

<svg
   xmlns:dc="http://purl.org/dc/elements/1.1/"
   xmlns:cc="http://creativecommons.org/ns#"
   xmlns:rdf="http://www.w3.org/1999/02/22-rdf-syntax-ns#"
   xmlns:svg="http://www.w3.org/2000/svg"
   xmlns="http://www.w3.org/2000/svg"
   xmlns:xlink="http://www.w3.org/1999/xlink"
   version="1.1"
   width="22"
   height="22"
   id="svg3734">
  <metadata
     id="metadata29">
    <rdf:RDF>
      <cc:Work
         rdf:about="">
        <dc:format>image/svg+xml</dc:format>
        <dc:type
           rdf:resource="http://purl.org/dc/dcmitype/StillImage" />
        <dc:title></dc:title>
      </cc:Work>
    </rdf:RDF>
  </metadata>
  <defs
     id="defs3736">
    <linearGradient
       id="linearGradient4456">
      <stop
         id="stop4458"
         style="stop-color:#f6daae;stop-opacity:1"
         offset="0" />
      <stop
         id="stop4460"
         style="stop-color:#f0c178;stop-opacity:0"
         offset="1" />
    </linearGradient>
    <linearGradient
       id="linearGradient3390-178-986-453-4-5">
      <stop
         id="stop3624-8-6"
         style="stop-color:#bb2b12;stop-opacity:1"
         offset="0" />
      <stop
         id="stop3626-1-1"
         style="stop-color:#cd7233;stop-opacity:1"
         offset="1" />
    </linearGradient>
    <linearGradient
       x1="-31.522509"
       y1="190.51227"
       x2="-55.189419"
       y2="182.47969"
       id="linearGradient3732"
       xlink:href="#linearGradient3390-178-986-453-4-5"
       gradientUnits="userSpaceOnUse"
       gradientTransform="matrix(0.92956783,0,0,0.99594396,51.30231,-181.73954)" />
    <linearGradient
       id="linearGradient7012-661-145-733-759-865-745-661-970-94-1-0">
      <stop
         id="stop3618-1-9"
         style="stop-color:#f0c178;stop-opacity:1"
         offset="0" />
      <stop
         id="stop3270-5-6"
         style="stop-color:#e18941;stop-opacity:1"
         offset="0.5" />
      <stop
         id="stop3620-9-3"
         style="stop-color:#ec4f18;stop-opacity:1"
         offset="1" />
    </linearGradient>
    <linearGradient
       x1="-55.189419"
       y1="182.47969"
       x2="-31.522509"
       y2="191.51634"
       id="linearGradient4322"
       xlink:href="#linearGradient7012-661-145-733-759-865-745-661-970-94-1-0"
       gradientUnits="userSpaceOnUse"
       gradientTransform="matrix(0.92956783,0,0,0.99594396,51.30231,-181.73954)" />
    <linearGradient
       x1="-55.189419"
       y1="183.48376"
       x2="-31.522509"
       y2="191.51634"
       id="linearGradient4324"
       xlink:href="#linearGradient7012-661-145-733-759-865-745-661-970-94-1-0"
       gradientUnits="userSpaceOnUse"
       gradientTransform="matrix(0.92956783,0,0,0.99594396,51.30231,-181.73954)" />
    <linearGradient
       x1="-31.522509"
       y1="191.51634"
       x2="-55.189419"
       y2="182.47969"
       id="linearGradient4452"
       xlink:href="#linearGradient3390-178-986-453-4-5"
       gradientUnits="userSpaceOnUse"
       gradientTransform="matrix(0.92956783,0,0,0.99594396,51.30231,-181.73954)" />
    <linearGradient
       x1="0"
       y1="-8.8817842e-16"
       x2="22"
       y2="9"
       id="linearGradient4462"
       xlink:href="#linearGradient4456"
       gradientUnits="userSpaceOnUse" />
    <linearGradient
       x1="0"
       y1="-8.8817842e-16"
       x2="22"
       y2="9"
       id="linearGradient3026"
       xlink:href="#linearGradient4456"
       gradientUnits="userSpaceOnUse" />
  </defs>
  <g
     transform="matrix(0,1,1,0,6,0)"
     id="layer1">
    <path
       d="M 8.475,-1.4875 2.5,4.99993 8.475,11.4875"
       id="path3169-2-3"
       style="fill:none;stroke:url(#linearGradient3732);stroke-width:5;stroke-linecap:round;stroke-linejoin:round;stroke-miterlimit:4;stroke-opacity:1;stroke-dasharray:none;display:inline;enable-background:new" />
    <path
       d="M 19,5 6.5,4.99993"
       id="path3765"
       style="fill:none;stroke:url(#linearGradient4452);stroke-width:6;stroke-linecap:round;stroke-linejoin:round;stroke-miterlimit:4;stroke-opacity:1;stroke-dasharray:none;display:inline;enable-background:new" />
    <path
       d="M 8.43759,-1.4501675 2.5,4.99993 8.437653,11.449983"
       id="path4277"
       style="fill:none;stroke:url(#linearGradient4322);stroke-width:3;stroke-linecap:round;stroke-linejoin:round;stroke-miterlimit:4;stroke-opacity:1;stroke-dasharray:none;display:inline;enable-background:new" />
    <path
       d="M 19,5 6.5,4.99993"
       id="path4279"
       style="fill:none;stroke:url(#linearGradient4324);stroke-width:4;stroke-linecap:round;stroke-linejoin:round;stroke-miterlimit:4;stroke-opacity:1;stroke-dasharray:none;display:inline;enable-background:new" />
    <path
       d="M 8.9,10.46875 6.5,8 C 5.514219,6.9859804 6.5,6.5 8,6.5 l 10.5,0 c 3,0 2.5,-3 0,-3 l -10,0 c -1.5,0 -3,0 -2,-1.5 l 2.33125,-2.19374997 c 1.5,-2.00000003 -0.5,-2.50000003 -1.5,-1.50000003 L 2,4 C 1.5,4.5 1.4724356,5.3333333 2,6 l 5.4,5.96875 c 1,1 2.978671,0.02103 1.5,-1.5 z"
       id="path4454"
       style="opacity:0.4;fill:none;stroke:url(#linearGradient3026);stroke-width:1;stroke-linecap:round;stroke-linejoin:round;stroke-miterlimit:4;stroke-opacity:1;stroke-dasharray:none;display:inline;enable-background:new" />
    <path
       d="M 6.5,2 8.9,-0.33124997 C 10.4,-2.33125 8.4,-2.83125 7.4,-1.83125 L 2,4 C 1.5,4.5 1.4724356,5.3333333 2,6 l 5.4,5.9 c 1,1 2.795749,0.13265 1.3625,-1.43125 L 6.5,8"
       id="path4464"
       style="opacity:0.4;fill:none;stroke:url(#linearGradient4462);stroke-width:1;stroke-linecap:round;stroke-linejoin:round;stroke-miterlimit:4;stroke-opacity:1;stroke-dasharray:none;display:inline;enable-background:new" />
    <path
       d="M 7.2625,-1.65 2,4"
       id="path4466"
       style="opacity:0.51000001;fill:none;stroke:#f6daae;stroke-width:1;stroke-linecap:round;stroke-linejoin:round;stroke-miterlimit:4;stroke-opacity:1;stroke-dasharray:none;display:inline;enable-background:new" />
  </g>
</svg>

<?xml version="1.0" encoding="UTF-8" standalone="no"?>
<!-- Created with Inkscape (http://www.inkscape.org/) -->
<svg id="svg3734" xmlns:rdf="http://www.w3.org/1999/02/22-rdf-syntax-ns#" xmlns="http://www.w3.org/2000/svg" height="22" width="22" version="1.1" xmlns:cc="http://creativecommons.org/ns#" xmlns:xlink="http://www.w3.org/1999/xlink" xmlns:dc="http://purl.org/dc/elements/1.1/">
 <metadata id="metadata29">
  <rdf:RDF>
   <cc:Work rdf:about="">
    <dc:format>image/svg+xml</dc:format>
    <dc:type rdf:resource="http://purl.org/dc/dcmitype/StillImage"/>
    <dc:title/>
   </cc:Work>
  </rdf:RDF>
 </metadata>
 <defs id="defs3736">
  <linearGradient id="linearGradient4456">
   <stop id="stop4458" style="stop-color:#f6daae" offset="0"/>
   <stop id="stop4460" style="stop-color:#f0c178;stop-opacity:0" offset="1"/>
  </linearGradient>
  <linearGradient id="linearGradient3390-178-986-453-4-5">
   <stop id="stop3624-8-6" style="stop-color:#bb2b12" offset="0"/>
   <stop id="stop3626-1-1" style="stop-color:#cd7233" offset="1"/>
  </linearGradient>
  <linearGradient id="linearGradient3732" y2="182.48" xlink:href="#linearGradient3390-178-986-453-4-5" gradientUnits="userSpaceOnUse" x2="-55.189" gradientTransform="matrix(.92957 0 0 .99594 51.302 -181.74)" y1="190.51" x1="-31.523"/>
  <linearGradient id="linearGradient7012-661-145-733-759-865-745-661-970-94-1-0">
   <stop id="stop3618-1-9" style="stop-color:#f0c178" offset="0"/>
   <stop id="stop3270-5-6" style="stop-color:#e18941" offset=".5"/>
   <stop id="stop3620-9-3" style="stop-color:#ec4f18" offset="1"/>
  </linearGradient>
  <linearGradient id="linearGradient4322" y2="191.52" xlink:href="#linearGradient7012-661-145-733-759-865-745-661-970-94-1-0" gradientUnits="userSpaceOnUse" x2="-31.523" gradientTransform="matrix(.92957 0 0 .99594 51.302 -181.74)" y1="182.48" x1="-55.189"/>
  <linearGradient id="linearGradient4324" y2="191.52" xlink:href="#linearGradient7012-661-145-733-759-865-745-661-970-94-1-0" gradientUnits="userSpaceOnUse" x2="-31.523" gradientTransform="matrix(.92957 0 0 .99594 51.302 -181.74)" y1="183.48" x1="-55.189"/>
  <linearGradient id="linearGradient4452" y2="182.48" xlink:href="#linearGradient3390-178-986-453-4-5" gradientUnits="userSpaceOnUse" x2="-55.189" gradientTransform="matrix(.92957 0 0 .99594 51.302 -181.74)" y1="191.52" x1="-31.523"/>
  <linearGradient id="linearGradient4462" y2="9" xlink:href="#linearGradient4456" gradientUnits="userSpaceOnUse" x2="22" y1="-8.8818e-16"/>
 </defs>
 <g id="layer1" transform="matrix(0,1,1,0,6,0)">
  <path id="path3169-2-3" style="stroke-linejoin:round;stroke-width:5;stroke:url(#linearGradient3732);stroke-linecap:round;enable-background:new;fill:none" d="m8.475-1.4875-5.975 6.4874 5.975 6.4881"/>
  <path id="path3765" style="stroke-linejoin:round;stroke-width:6;stroke:url(#linearGradient4452);stroke-linecap:round;enable-background:new;fill:none" d="m19 5-12.5-0.0001"/>
  <path id="path4277" style="stroke-linejoin:round;stroke-width:3;stroke:url(#linearGradient4322);stroke-linecap:round;enable-background:new;fill:none" d="m8.4376-1.4502-5.9376 6.4501 5.9377 6.4501"/>
  <path id="path4279" style="stroke-linejoin:round;stroke-width:4;stroke:url(#linearGradient4324);stroke-linecap:round;enable-background:new;fill:none" d="m19 5-12.5-0.0001"/>
  <path id="path4454" style="opacity:.4;stroke-linejoin:round;enable-background:new;stroke:url(#linearGradient4462);stroke-linecap:round;fill:none" d="m8.9 10.469-2.4-2.469c-0.9858-1.014 0-1.5 1.5-1.5h10.5c3 0 2.5-3 0-3h-10c-1.5 0-3 0-2-1.5l2.3312-2.1937c1.5-2-0.5-2.5-1.5-1.5l-5.3312 5.6937c-0.5 0.5-0.5276 1.3333 0 2l5.4 5.9688c1 1 2.9787 0.02103 1.5-1.5z"/>
  <path id="path4464" style="opacity:.4;stroke-linejoin:round;stroke:url(#linearGradient4462);stroke-linecap:round;enable-background:new;fill:none" d="m6.5 2 2.4-2.3312c1.5-2-0.5-2.5-1.5-1.5l-5.4 5.8312c-0.5 0.5-0.5276 1.3333 0 2l5.4 5.9c1 1 2.7957 0.13265 1.3625-1.4312l-2.2625-2.469"/>
  <path id="path4466" style="opacity:0.51;stroke-linejoin:round;stroke:#f6daae;stroke-linecap:round;enable-background:new;fill:none" d="m7.2625-1.65-5.2625 5.65"/>
 </g>
</svg>
